X: 3
T: Paddy's
Z: ceolachan
S: https://thesession.org/tunes/3226#setting16297
R: polka
M: 2/4
L: 1/8
K: Ador
|: eA BA | eA BA | G>A Bd- | dG Bd |eA BA | eA BA | G2 AB/d/ | BA A2 :||: ea ag/a/ | ba gd | ea ag/a/ | ba g2 |ea ag/a/ | ba gd | ed gB | BA A2 :|eA BA | eA BA | G2 AB/d/ | G2 A/B/d |eA BA | eA BA | G2 AB/d/ | BA A :|a2 gf | a2 gf | dB GA | Bc de |a2 gf | a2 gf | dB gB/B/ | A2 A :|
